img/brand/Burger_King.svg

<svg width="78" height="80" viewBox="0 0 78 80" fill="none" xmlns="http://www.w3.org/2000/svg">
<path fill-rule="evenodd" clip-rule="evenodd" d="M39.748 1.33447C34.5671 1.33447 29.5965 2.34436 24.8511 4.36414C20.2827 6.31826 16.2322 9.07063 12.6974 12.6375C9.17874 16.2044 6.43501 20.2923 4.51462 24.9016C2.49689 29.6901 1.49662 34.6896 1.49662 39.9344C1.49662 45.1624 2.49689 50.1787 4.51462 54.9503C6.43501 59.5754 9.17874 63.6638 12.6974 67.2302C16.2322 70.7966 20.2827 73.55 24.8511 75.5036C29.5959 77.5239 34.5666 78.5495 39.748 78.5495C44.9451 78.5495 49.9002 77.5234 54.6455 75.5036C59.2134 73.55 63.2639 70.7966 66.7992 67.2302C70.3173 63.6638 73.0616 59.576 74.982 54.9503C76.9997 50.1787 78 45.1624 78 39.9344C78 34.6896 76.9997 29.6901 74.982 24.9016C73.0616 20.2923 70.3173 16.2044 66.7992 12.6375C63.2644 9.07063 59.2139 6.31826 54.6455 4.36414C49.9002 2.34436 44.9451 1.33447 39.748 1.33447Z" fill="white"/>
<path fill-rule="evenodd" clip-rule="evenodd" d="M56.889 13.973C57.2762 13.9241 57.5021 13.7608 57.5989 13.5334C57.7118 13.2561 57.6473 12.9794 57.4209 12.7026C55.614 9.60781 51.5301 7.70307 45.1387 7.01824C42.4751 6.7252 39.6189 6.85598 36.5526 7.40895C33.3082 7.97929 30.4999 8.89096 28.1272 10.1781C22.2203 13.3864 18.8307 17.637 17.9428 22.9464C17.8132 23.4348 17.8455 23.7777 18.0068 23.9888C18.1848 24.2005 18.4758 24.233 18.8786 24.1023C26.7715 21.4313 32.8887 19.5097 37.214 18.337C44.0416 16.53 50.5944 15.0643 56.889 13.973Z" fill="#FEBE10"/>
<path fill-rule="evenodd" clip-rule="evenodd" d="M50.901 4.91758C47.3178 3.7449 43.6862 3.17456 40.0384 3.17456C34.7285 3.17456 29.725 4.20127 25.0609 6.26881C20.6549 8.20719 16.7974 10.9433 13.4562 14.4613C10.2441 17.8654 7.74235 21.7579 5.98329 26.1388C4.20809 30.5197 3.33582 35.0146 3.33582 39.6408C3.33582 44.6246 4.25595 49.3804 6.11235 53.9398C7.91982 58.3859 10.4538 62.3109 13.7627 65.7318C17.0717 69.1837 20.913 71.8547 25.2545 73.7448C29.7895 75.732 34.5671 76.7093 39.6034 76.7093C48.367 76.7093 56.0174 74.0373 62.5546 68.6628C65.1203 66.5621 67.38 64.1191 69.3494 61.3678C71.0121 59.0381 72.3195 56.6765 73.2719 54.3154L67.1542 50.9596C64.5723 56.823 60.9891 61.4638 56.4056 64.8685C51.5468 68.4679 46.0432 70.3086 39.926 70.4063C35.3905 70.4709 31.1135 69.7546 27.1109 68.24C23.205 66.7743 19.7675 64.6406 16.7974 61.8236L13.2626 63.3539V57.8329C11.2933 55.1619 9.80902 52.2305 8.77542 48.9892C7.71008 45.6507 7.17769 42.1158 7.17769 38.403C7.17769 33.6308 8.04942 29.1197 9.79235 24.8527C11.4874 20.6998 13.9079 17.0515 17.0555 13.9084C20.2349 10.7159 23.9315 8.27339 28.1595 6.54665C32.5499 4.77161 37.2625 3.87568 42.282 3.87568C44.9779 3.87513 47.8668 4.23329 50.901 4.91758Z" fill="#0061A9"/>
<path fill-rule="evenodd" clip-rule="evenodd" d="M69.1068 30.1616C68.8653 29.6407 68.4771 29.2825 67.9291 29.0541C67.0735 28.7285 66.1372 28.5163 65.0719 28.4512C64.0227 28.3861 62.9735 28.4512 61.9081 28.6791C59.8754 29.0861 58.1319 29.9657 56.695 31.3175C54.6132 33.2722 53.564 35.9269 53.564 39.3141C53.564 42.1485 54.4842 44.2491 56.3244 45.6171C57.8899 46.7735 59.8103 47.2294 62.0706 46.9684C64.6201 46.6759 66.6061 45.812 68.042 44.3793C68.8653 43.5653 69.2687 42.4415 69.2848 41.0083C69.3176 40.0315 69.3176 37.9629 69.2848 34.8356L61.6506 36.5135V38.3048C61.6667 39.6083 62.2642 40.145 63.4747 39.9008L64.4438 39.6566L64.4599 41.1228C64.4755 41.2531 64.4265 41.3996 64.2819 41.5629C64.0065 41.9205 63.4575 42.1647 62.6508 42.3275C61.4241 42.5066 60.504 42.2624 59.8754 41.5461C59.2779 40.8781 58.9708 39.8194 58.9547 38.403C58.9875 36.9861 59.3586 35.8134 60.0845 34.9012C60.7466 34.0704 61.6021 33.5169 62.6836 33.2727C63.6355 33.0448 64.5395 32.9797 65.3951 33.0936L66.9767 33.403C67.5897 33.5012 68.0899 33.3547 68.526 33.0122C68.8971 32.6866 69.1552 32.2465 69.2687 31.7099C69.3816 31.1553 69.3171 30.65 69.1068 30.1616Z" fill="#ED1C2E"/>
<path fill-rule="evenodd" clip-rule="evenodd" d="M48.4632 32.9791C48.0121 33.5815 47.7857 34.396 47.7857 35.471L47.7695 40.9106C45.7362 38.3373 44.0411 36.3664 42.7182 35.0146C41.9911 34.2983 41.0549 34.1518 39.8771 34.5751L37.2625 35.3728V53.5324L39.7965 52.6527C40.7322 52.3271 41.3942 51.8544 41.7975 51.2684C42.1847 50.6823 42.3627 49.9009 42.3627 48.9067L42.3299 42.6363L47.769 48.9713C48.5767 49.8021 49.577 50.0469 50.787 49.6887C51.336 49.5254 51.7872 49.216 52.1427 48.7445C52.5304 48.255 52.724 47.6857 52.7391 47.034V31.3018C51.8034 31.4966 50.9483 31.7088 50.1572 31.9367C49.4167 32.1489 48.851 32.4907 48.4632 32.9791Z" fill="#ED1C2E"/>
<path fill-rule="evenodd" clip-rule="evenodd" d="M32.6306 36.7576C31.7105 37.0995 31.0329 37.5716 30.6134 38.1414C30.1289 38.8257 29.903 39.7867 29.903 41.0571L29.8874 56.1387L32.8247 55.08C33.8417 54.6887 34.5515 54.2171 34.971 53.6142C35.3905 53.0282 35.6007 52.1974 35.6007 51.1381L35.6169 35.7803C34.5026 36.1064 33.5185 36.432 32.6306 36.7576Z" fill="#ED1C2E"/>
<path fill-rule="evenodd" clip-rule="evenodd" d="M19.4766 41.8553L14.0375 44.1356L14.0053 62.2306L17.8466 60.6015C18.3629 60.4713 18.7667 60.1457 19.0566 59.673C19.3475 59.2172 19.4766 58.6311 19.4605 57.8985V52.1485L23.7541 56.7579C24.2865 57.2951 24.9157 57.6207 25.6417 57.7021C26.4811 57.8166 27.2555 57.5718 27.9659 57.0015C28.6112 56.4643 28.95 55.7805 28.9823 54.9497C28.9984 54.1846 28.8048 53.5654 28.3693 53.077L24.4473 49.1194L28.4661 42.7187C28.8371 42.1001 28.9345 41.4646 28.7564 40.8297C28.5628 40.1617 28.1273 39.6733 27.4653 39.3802C26.771 39.0547 26.0773 39.0216 25.4319 39.2663C24.8667 39.4779 24.4317 39.8198 24.1246 40.3082L19.4922 48.256L19.4766 41.8553Z" fill="#ED1C2E"/>
<path fill-rule="evenodd" clip-rule="evenodd" d="M63.8608 48.4189C63.6678 48.2067 63.329 48.1584 62.8611 48.2887C57.4704 49.5596 51.2882 51.302 44.2998 53.5161C36.7946 55.894 30.7097 58.0934 26.0617 60.1127L25.5933 60.3406C25.4809 60.422 25.3835 60.5197 25.3351 60.6662C25.1899 60.9755 25.2706 61.2865 25.5777 61.6115C26.1101 62.2622 26.9979 62.8981 28.2569 63.5162C29.6126 64.168 31.1619 64.7063 32.9371 65.1133C37.2625 66.0738 41.6039 66.025 45.962 64.9662C52.1438 63.4685 56.937 60.6347 60.3432 56.4649C61.4731 55.0638 62.3932 53.5818 63.1026 52.0346C63.5392 51.0904 63.8452 50.2433 64.0227 49.4939C64.1195 48.9892 64.0716 48.6311 63.8608 48.4189Z" fill="#FEBE10"/>
<path fill-rule="evenodd" clip-rule="evenodd" d="M18.5242 28.5494C17.6686 28.0935 16.571 28.0935 15.2314 28.5982C14.5533 28.8424 13.2142 29.3797 11.1965 30.2105L11.2126 43.4025L16.0225 41.3339C17.3459 40.7798 18.3306 40.1612 18.9759 39.4932C19.7831 38.6461 20.1703 37.653 20.1537 36.4804C20.1381 35.8286 19.9283 35.2751 19.4922 34.8193C19.0889 34.3792 18.5882 34.1024 17.9907 34.0053C19.1367 33.0768 19.7014 31.9855 19.7014 30.7151C19.7019 29.7058 19.2986 28.9889 18.5242 28.5494ZM15.1346 33.7611L14.521 34.0216V31.2372C15.0539 30.9436 15.5057 30.8785 15.8611 30.9924C16.1999 31.1227 16.3774 31.4163 16.3613 31.9046C16.3613 32.7349 15.9418 33.3541 15.1346 33.7611ZM16.0875 35.8617C16.4586 36.0571 16.6522 36.399 16.6522 36.9205C16.6845 37.8327 16.2161 38.5007 15.2965 38.924L14.5538 39.2658V36.0571C15.183 35.732 15.6998 35.6664 16.0875 35.8617Z" fill="#ED1C2E"/>
<path fill-rule="evenodd" clip-rule="evenodd" d="M29.3055 25.3405C29.3055 24.8038 29.1447 24.4451 28.8054 24.2498C28.515 24.0707 28.1111 24.0544 27.6433 24.201C27.1426 24.3475 26.6102 24.5265 26.0294 24.755V32.947C25.9971 34.1685 25.6261 34.8528 24.8839 35.0482C24.5129 35.1296 24.2225 35.0645 24.0283 34.8528C23.8509 34.6569 23.7546 34.3319 23.7546 33.9086L23.7374 27.1975C23.7374 26.6603 23.5755 26.2858 23.2529 26.0899C22.9463 25.8951 22.5591 25.8951 22.0751 26.0411L20.4285 26.6435V34.7709C20.4129 36.1389 20.8318 37.132 21.6874 37.7186C22.5597 38.3378 23.7046 38.4355 25.1093 38.0122C26.4806 37.6041 27.4814 36.986 28.1273 36.204C28.9022 35.2587 29.2894 33.9401 29.305 32.2296V25.3405H29.3055Z" fill="#ED1C2E"/>
<path fill-rule="evenodd" clip-rule="evenodd" d="M53.3704 21.8719V20.0318L56.162 19.4451C56.824 19.3149 57.1628 18.8428 57.1628 18.0608V16.6597C54.8547 17.0509 52.4982 17.5393 50.1099 18.0928L50.0615 30.129C52.6756 29.4947 54.6772 29.0383 56.1136 28.7284C56.8886 28.5488 57.2919 28.0279 57.2919 27.165V25.7639L53.3699 26.6272L53.386 24.2982L55.8394 23.7777C56.517 23.6144 56.8563 23.1911 56.8563 22.4743L56.8407 21.1388L53.3704 21.8719Z" fill="#ED1C2E"/>
<path fill-rule="evenodd" clip-rule="evenodd" d="M30.21 35.7808L32.1627 35.1134C33.0506 34.7547 33.4862 34.1686 33.5023 33.3215L33.5184 30.0965L36.3267 33.0447C36.7467 33.4517 37.2146 33.6314 37.7631 33.5988C38.1992 33.5494 38.5542 33.4029 38.8446 33.1256C39.2 32.8 39.3775 32.3767 39.3775 31.8715C39.3614 31.3826 39.2 30.9761 38.8768 30.65L36.7472 28.5976C38.1191 27.458 38.7967 26.1383 38.8128 24.6726C38.8128 23.6464 38.4256 22.8813 37.6346 22.3923C36.8279 21.8876 35.7948 21.7737 34.552 22.0667C33.4867 22.3109 32.0342 22.7673 30.2106 23.4022V35.7808H30.21ZM33.5018 28.24V24.8039C34.7607 24.3312 35.4066 24.608 35.4227 25.6342C35.4388 26.7086 34.793 27.572 33.5018 28.24Z" fill="#ED1C2E"/>
<path fill-rule="evenodd" clip-rule="evenodd" d="M65.3139 16.4323C64.5395 15.8294 63.5387 15.602 62.3443 15.7648L58.019 16.4974V28.3545L59.8103 28.0121C60.7299 27.7999 61.1983 27.247 61.2144 26.3185V23.4196L63.9748 26.6929C64.2491 27.0022 64.5879 27.1813 64.959 27.247C65.3951 27.3278 65.8146 27.247 66.2174 26.9865C66.654 26.7092 66.896 26.319 66.9444 25.8301C66.9928 25.3411 66.8638 24.9179 66.5411 24.576L64.4104 22.166C65.7339 21.2701 66.412 20.1463 66.412 18.7945C66.4271 17.7835 66.0566 17.0184 65.3139 16.4323ZM61.2144 21.5789L61.1983 18.3701C62.4416 18.1102 63.087 18.4195 63.1026 19.3149C63.1026 20.3405 62.4734 21.0899 61.2144 21.5789Z" fill="#ED1C2E"/>
<path fill-rule="evenodd" clip-rule="evenodd" d="M49.2387 20.6666C49.2548 20.0963 49.0128 19.6573 48.5121 19.3474C47.9631 19.0376 47.1887 18.9073 46.1556 18.9242C43.9604 19.005 42.2336 19.7707 40.9747 21.2364C39.8126 22.5882 39.2318 24.2987 39.2318 26.383C39.2318 28.354 39.8126 29.8197 40.958 30.7807C42.0234 31.6761 43.4119 31.9697 45.0736 31.6599C46.4939 31.3826 47.6081 30.8784 48.4148 30.1453C49.0117 29.6243 49.3027 28.9238 49.3027 28.0604V23.3859L44.4116 24.4935V25.8615C44.4116 26.1877 44.5245 26.4319 44.7343 26.6109C44.9445 26.79 45.2027 26.8551 45.5092 26.79L46.2191 26.6272L46.2352 27.979C46.2352 28.2563 46.0733 28.4679 45.7345 28.6307C45.4113 28.7941 45.0247 28.8749 44.6041 28.8586C43.3941 28.8424 42.7967 27.9464 42.7644 26.1714C42.7805 25.0644 43.0387 24.1679 43.5071 23.4516C43.9755 22.7841 44.5719 22.3603 45.3312 22.1487C45.8147 22.0347 46.4449 22.019 47.2355 22.1161C47.8496 22.2301 48.3336 22.1324 48.688 21.8719C49.0451 21.6114 49.222 21.2039 49.2387 20.6666Z" fill="#ED1C2E"/>
<path fill-rule="evenodd" clip-rule="evenodd" d="M21.9294 21.2202C22.0907 21.1057 22.1719 20.9109 22.2037 20.6662C22.7527 18.565 23.8014 16.4964 25.3507 14.4934C26.8033 12.6202 28.3854 11.1544 30.1122 10.0957C27.6427 11.187 25.4637 12.93 23.5594 15.3242C22.785 16.3178 22.1558 17.2946 21.6707 18.272C21.219 19.2005 20.9609 19.9661 20.8963 20.6011C20.8963 20.829 20.9447 21.0081 21.0577 21.1551C21.1701 21.2854 21.3158 21.3499 21.4933 21.3662C21.6551 21.383 21.8003 21.3342 21.9294 21.2202Z" fill="white"/>
<path fill-rule="evenodd" clip-rule="evenodd" d="M52.4347 12.0508C52.4503 11.5135 52.0953 10.9595 51.4011 10.3897C50.7396 9.85246 49.8195 9.36352 48.674 8.90769C47.4791 8.46814 46.2201 8.15882 44.865 7.94664C43.4124 7.73554 41.9916 7.66988 40.6198 7.78438C43.3312 7.9792 45.5915 8.51698 47.3989 9.44547C48.19 9.83618 48.8025 10.2595 49.2387 10.7153C49.6576 11.1548 49.8845 11.5787 49.8845 11.9694C49.9001 12.4583 49.7071 12.9141 49.3193 13.3049C48.9639 13.7119 48.4799 14.0054 47.9152 14.1845L49.8195 13.7281C50.4653 13.5816 50.9332 13.4514 51.2403 13.3211C52.0313 13.0444 52.4185 12.6211 52.4347 12.0508Z" fill="white"/>
<path fill-rule="evenodd" clip-rule="evenodd" d="M60.553 52.5713C60.7148 52.2299 60.7299 51.9206 60.618 51.6596C60.5374 51.4159 60.3599 51.2526 60.1007 51.1712C59.8426 51.0898 59.6 51.1224 59.3586 51.2526C59.0676 51.4159 58.8746 51.6916 58.745 52.0823C57.9862 54.0696 56.9203 55.8934 55.5495 57.5713C53.9351 59.5743 51.9819 61.2196 49.7071 62.522C52.0147 61.6104 54.0808 60.3568 55.8883 58.7603C57.906 56.9858 59.4554 54.934 60.553 52.5713Z" fill="white"/>
<path fill-rule="evenodd" clip-rule="evenodd" d="M72.3668 51.0898H71.1563V51.2857H71.6247V52.2305H71.9318V51.2857H72.3668V51.0898Z" fill="#ED1C2E"/>
<path fill-rule="evenodd" clip-rule="evenodd" d="M72.8352 51.302L73.1095 52.2305H73.4165L73.6908 51.302V52.2305H73.9979V51.0898H73.5456L73.2713 51.9695L72.9804 51.0898H72.5287V52.2305H72.8352V51.302Z" fill="#ED1C2E"/>
</svg>

<svg width="78" height="80" viewBox="0 0 78 80" fill="none" xmlns="http://www.w3.org/2000/svg"><path fill-rule="evenodd" clip-rule="evenodd" d="M39.748 1.334c-5.18 0-10.151 1.01-14.897 3.03a37.989 37.989 0 00-12.154 8.274c-3.518 3.566-6.262 7.654-8.182 12.264-2.018 4.788-3.018 9.788-3.018 15.032 0 5.228 1 10.245 3.018 15.016 1.92 4.625 4.664 8.714 8.182 12.28a37.988 37.988 0 0012.154 8.274 37.674 37.674 0 0014.897 3.045 37.632 37.632 0 0014.898-3.045 37.999 37.999 0 0012.153-8.274c3.518-3.566 6.263-7.654 8.183-12.28C77 50.18 78 45.162 78 39.934c0-5.244-1-10.244-3.018-15.032-1.92-4.61-4.665-8.698-8.183-12.265a37.989 37.989 0 00-12.154-8.273 37.617 37.617 0 00-14.897-3.03z" fill="#fff"/><path fill-rule="evenodd" clip-rule="evenodd" d="M56.889 13.973c.387-.049.613-.212.71-.44.113-.277.048-.554-.178-.83-1.807-3.095-5.89-5-12.282-5.685-2.664-.293-5.52-.162-8.586.391-3.245.57-6.053 1.482-8.426 2.77-5.907 3.207-9.296 7.458-10.184 12.767-.13.489-.098.832.064 1.043.178.212.469.244.872.113 7.892-2.67 14.01-4.592 18.335-5.765 6.828-1.807 13.38-3.273 19.675-4.364z" fill="#FEBE10"/><path fill-rule="evenodd" clip-rule="evenodd" d="M50.901 4.918a34.755 34.755 0 00-10.863-1.743c-5.31 0-10.313 1.026-14.977 3.094-4.406 1.938-8.264 4.674-11.605 8.192A36.93 36.93 0 005.983 26.14c-1.775 4.38-2.647 8.876-2.647 13.502 0 4.984.92 9.74 2.776 14.299 1.808 4.446 4.342 8.37 7.65 11.792a35.305 35.305 0 0011.492 8.013c4.535 1.987 9.313 2.964 14.35 2.964 8.763 0 16.413-2.672 22.95-8.046 2.566-2.1 4.826-4.544 6.795-7.295 1.663-2.33 2.97-4.692 3.923-7.053l-6.118-3.355c-2.582 5.863-6.165 10.504-10.748 13.908-4.86 3.6-10.363 5.44-16.48 5.538-4.535.065-8.813-.651-12.815-2.166-3.906-1.466-7.344-3.6-10.314-6.416l-3.534 1.53v-5.521c-1.97-2.671-3.454-5.602-4.488-8.844-1.065-3.338-1.597-6.873-1.597-10.586 0-4.772.871-9.283 2.614-13.55a32.848 32.848 0 017.263-10.945c3.18-3.192 6.877-5.635 11.105-7.361 4.39-1.775 9.103-2.671 14.122-2.671 2.696 0 5.585.357 8.619 1.042z" fill="#0061A9"/><path fill-rule="evenodd" clip-rule="evenodd" d="M69.107 30.162c-.242-.521-.63-.88-1.178-1.108a9.574 9.574 0 00-2.857-.603c-1.05-.065-2.099 0-3.164.228-2.033.407-3.776 1.287-5.213 2.639-2.082 1.954-3.131 4.609-3.131 7.996 0 2.834.92 4.935 2.76 6.303 1.566 1.157 3.486 1.612 5.747 1.351 2.55-.292 4.535-1.156 5.971-2.589.823-.814 1.227-1.938 1.243-3.37.033-.977.033-3.046 0-6.173l-7.634 1.678v1.79c.016 1.304.613 1.841 1.824 1.597l.969-.244.016 1.466c.016.13-.033.277-.178.44-.275.357-.824.602-1.631.764-1.227.18-2.147-.065-2.776-.78-.597-.669-.904-1.728-.92-3.144.032-1.417.404-2.59 1.13-3.502a4.491 4.491 0 012.599-1.628c.952-.228 1.856-.293 2.711-.18l1.582.31c.613.098 1.113-.048 1.549-.39.371-.326.63-.767.743-1.303a2.521 2.521 0 00-.162-1.548zM48.463 32.98c-.45.602-.677 1.416-.677 2.491l-.017 5.44c-2.033-2.574-3.728-4.545-5.05-5.896-.728-.717-1.664-.863-2.842-.44l-2.614.798v18.16l2.534-.88c.935-.326 1.597-.799 2-1.385.388-.586.566-1.367.566-2.361l-.033-6.27 5.439 6.334c.808.831 1.808 1.076 3.018.718a2.58 2.58 0 001.356-.944c.387-.49.581-1.06.596-1.711V31.302c-.936.195-1.79.407-2.582.635-.74.212-1.306.554-1.694 1.042zM32.63 36.758c-.92.341-1.597.814-2.017 1.383-.484.685-.71 1.646-.71 2.916l-.016 15.082 2.938-1.059c1.017-.391 1.726-.863 2.146-1.466.42-.586.63-1.417.63-2.476l.016-15.358a46.943 46.943 0 00-2.986.978zm-13.153 5.097l-5.44 2.28-.032 18.096 3.842-1.63c.516-.13.92-.455 1.21-.928.29-.456.42-1.042.404-1.775v-5.75l4.293 4.61c.532.537 1.162.863 1.888.944.84.115 1.614-.13 2.324-.7.645-.538.984-1.221 1.016-2.052.016-.765-.177-1.385-.613-1.873l-3.922-3.958 4.02-6.4c.37-.619.468-1.254.29-1.89-.194-.667-.63-1.156-1.292-1.449-.694-.325-1.388-.358-2.033-.114-.565.212-1 .554-1.307 1.042l-4.633 7.948-.015-6.4z" fill="#ED1C2E"/><path fill-rule="evenodd" clip-rule="evenodd" d="M63.86 48.419c-.192-.212-.531-.26-.999-.13-5.39 1.27-11.573 3.013-18.561 5.227-7.505 2.378-13.59 4.577-18.238 6.597l-.469.228a.652.652 0 00-.258.325c-.145.31-.064.62.243.946.532.65 1.42 1.286 2.679 1.904 1.356.652 2.905 1.19 4.68 1.597 4.326.96 8.667.912 13.025-.147 6.182-1.497 10.975-4.331 14.381-8.501a20.992 20.992 0 002.76-4.43c.436-.945.742-1.792.92-2.541.097-.505.049-.863-.162-1.075z" fill="#FEBE10"/><path fill-rule="evenodd" clip-rule="evenodd" d="M18.524 28.55c-.855-.457-1.953-.457-3.293.048-.678.244-2.017.782-4.034 1.613l.016 13.192 4.81-2.07c1.323-.553 2.308-1.172 2.953-1.84.807-.847 1.194-1.84 1.178-3.013-.016-.651-.226-1.205-.662-1.66a2.541 2.541 0 00-1.501-.815c1.146-.928 1.71-2.02 1.71-3.29 0-1.01-.402-1.726-1.177-2.166zm-3.39 5.211l-.613.26v-2.784c.533-.293.985-.358 1.34-.245.339.13.516.424.5.913 0 .83-.42 1.45-1.226 1.856zm.953 2.1c.372.196.565.538.565 1.06.032.912-.436 1.58-1.356 2.003l-.742.342v-3.209c.629-.325 1.146-.39 1.533-.195zM29.305 25.34c0-.536-.16-.895-.5-1.09-.29-.18-.694-.196-1.162-.049-.5.146-1.033.325-1.614.554v8.192c-.032 1.221-.403 1.906-1.145 2.101-.371.082-.662.017-.856-.195-.177-.196-.273-.521-.273-.944l-.018-6.711c0-.538-.161-.912-.484-1.108-.307-.195-.694-.195-1.178-.049l-1.646.602v8.128c-.016 1.368.403 2.361 1.258 2.948.873.619 2.018.716 3.422.293 1.372-.408 2.372-1.026 3.018-1.808.775-.945 1.162-2.264 1.178-3.974v-6.89zm24.065-3.468v-1.84l2.792-.587c.662-.13 1-.602 1-1.384V16.66c-2.307.39-4.664.88-7.052 1.433l-.048 12.036a249.7 249.7 0 016.052-1.4c.775-.18 1.178-.701 1.178-1.564v-1.401l-3.922.863.016-2.329 2.453-.52c.678-.164 1.017-.587 1.017-1.304l-.015-1.335-3.47.733zM30.21 35.78l1.953-.667c.888-.358 1.323-.944 1.34-1.791l.015-3.226 2.809 2.949c.42.407.888.586 1.436.554.436-.05.791-.196 1.082-.473.355-.326.532-.75.532-1.254-.016-.49-.177-.896-.5-1.222l-2.13-2.052c1.372-1.14 2.05-2.46 2.066-3.925 0-1.027-.387-1.792-1.178-2.28-.807-.505-1.84-.62-3.083-.326-1.065.244-2.518.7-4.341 1.335v12.379h-.001zm3.292-7.54v-3.436c1.259-.473 1.905-.196 1.92.83.017 1.075-.629 1.938-1.92 2.606zm31.812-11.808c-.774-.603-1.775-.83-2.97-.667l-4.325.732v11.858l1.791-.343c.92-.212 1.388-.765 1.404-1.694V23.42l2.76 3.273c.275.31.614.488.985.554.436.08.856 0 1.258-.26.437-.278.679-.668.727-1.157.049-.489-.08-.912-.403-1.254l-2.13-2.41c1.323-.896 2.001-2.02 2.001-3.372.015-1.01-.355-1.776-1.098-2.362zm-4.1 5.147l-.016-3.209c1.244-.26 1.889.05 1.905.945 0 1.025-.63 1.775-1.889 2.264zm-11.975-.912c.016-.57-.226-1.01-.727-1.32-.549-.31-1.323-.44-2.356-.423-2.196.081-3.922.847-5.181 2.312-1.162 1.352-1.743 3.063-1.743 5.147 0 1.971.58 3.437 1.726 4.398 1.065.895 2.454 1.189 4.116.879 1.42-.277 2.534-.782 3.34-1.515.598-.52.889-1.221.889-2.085v-4.674l-4.891 1.108v1.367c0 .327.113.57.322.75.21.179.469.244.775.179l.71-.163.016 1.352c0 .277-.162.489-.5.652-.324.163-.71.244-1.13.228-1.21-.017-1.808-.913-1.84-2.688.016-1.107.274-2.003.742-2.72.468-.667 1.065-1.09 1.824-1.302.484-.114 1.114-.13 1.904-.033.615.114 1.099.016 1.453-.244.357-.26.534-.668.55-1.205z" fill="#ED1C2E"/><path fill-rule="evenodd" clip-rule="evenodd" d="M21.93 21.22c.16-.114.242-.31.274-.554.549-2.101 1.597-4.17 3.147-6.173 1.452-1.873 3.034-3.339 4.761-4.397-2.47 1.091-4.648 2.834-6.553 5.228-.774.994-1.403 1.97-1.888 2.948-.452.929-.71 1.694-.775 2.33 0 .227.049.406.162.553a.62.62 0 00.435.211.55.55 0 00.436-.146zm30.505-9.17c.015-.537-.34-1.09-1.034-1.66-.661-.538-1.582-1.026-2.727-1.482-1.195-.44-2.454-.75-3.809-.961-1.453-.211-2.873-.277-4.245-.163 2.711.195 4.972.733 6.779 1.661.791.391 1.404.814 1.84 1.27.419.44.646.864.646 1.254.015.49-.178.945-.566 1.336-.355.407-.84.7-1.404.88l1.904-.457c.646-.146 1.114-.277 1.421-.407.791-.277 1.178-.7 1.195-1.27zm8.118 40.521c.162-.341.177-.65.065-.911-.08-.244-.258-.407-.517-.489a.915.915 0 00-.742.082c-.291.163-.484.439-.614.83a19.77 19.77 0 01-3.195 5.488c-1.615 2.003-3.568 3.649-5.843 4.951 2.308-.912 4.374-2.165 6.181-3.762 2.018-1.774 3.567-3.826 4.665-6.189z" fill="#fff"/><path fill-rule="evenodd" clip-rule="evenodd" d="M72.367 51.09h-1.21v.196h.468v.944h.307v-.944h.435v-.196zm.468.212l.275.928h.306l.275-.928v.928h.307v-1.14h-.452l-.275.88-.29-.88h-.452v1.14h.306v-.928z" fill="#ED1C2E"/></svg>
